!!!OTL: WIR LUSTGEN BRAUNSCHWEIGER
!!!ARE: Europa, Mitteleuropa, Deutschland, Braunschweig
!!!SCT: E1334
!!!YEM: Copyright 1995, estate of Helmut Schaffrath.
**kern
*ICvox
*Ivox
*M3/4
*k[f#]
*G:
{4d
=1
4g
8g
8a
8b
8cc
=2
8ee
8dd
4dd}
{8b
8dd
=3
4dd
4cc
8a
8cc
=4
4cc
4b}
{4d
=5
4g
8g
8a
8b
8cc
=6
8ee
8dd
4dd}
{8b
8dd
=7
4dd
4cc
8a
8cc
=8
4cc
4b}
{8g
8b
=9
4dd
4dd
4dd
=10
4.dd
8cc}
{4b
=11
4ee
4ee
4ee
=12
4.ee
8dd}
{4cc
=13
4b
4b
8cc
8ee
=14
4dd
4r}
{8.ee
16dd
=15
8dd
8cc
8cc
8cc
8dd
8cc
=16
4b
4r}
{8g
8b
=17
4dd
4dd
4dd
=18
4.dd
8cc}
{4b
=19
4ee
4ee
4ee
=20
4.ee
8dd}
{4cc
=21
4b
4b
8cc
8ee
=22
4dd
4r}
{8.ee
16dd
=23
8dd
8cc
8cc
8cc
8dd
8cc
=24
4b
4r}
==
!!!AGN: Staende -, Soldaten -, Kriegs - Lied
!!!ONB: ESAC (Essen Associative Code) Database: ERK3
!!!AMT: simple triple
!!!AIN: vox
!!!EED: Helmut Schaffrath
!!!EEV: 1.0
*-
